static/img/in-field/btn-ancillary-states-danger-focused.svg

<svg fill="none" height="64" viewBox="0 0 126 64" width="126" xmlns="http://www.w3.org/2000/svg"><rect fill="#da212c" height="48" rx="4" width="110" x="8" y="8"/><path d="m26.1309 25.2949h4.8877c2.0911 0 3.6738.2936 4.748.8809 1.0742.5872 1.6113 1.6185 1.6113 3.0937 0 .5944-.0967 1.1315-.29 1.6114-.1862.4798-.4583.8737-.8164 1.1816s-.7949.5085-1.3106.6016v.1074c.5228.1074.9955.2936 1.418.5586.4225.2578.7591.6373 1.0098 1.1387.2578.4941.3867 1.1529.3867 1.9765 0 .9525-.2328 1.7689-.6983 2.4492-.4654.6804-1.1315 1.2032-1.998 1.5684-.8594.3581-1.8835.5371-3.0723.5371h-5.8759zm3.33 6.2197h1.9336c.9668 0 1.6364-.1503 2.0088-.4511.3724-.308.5586-.7591.5586-1.3535 0-.6016-.222-1.0313-.666-1.2891-.4369-.265-1.1315-.3975-2.084-.3975h-1.751zm0 2.6426v4.0928h2.17c1.0026 0 1.7008-.1934 2.0947-.5801s.5908-.9059.5908-1.5576c0-.3867-.0859-.7269-.2578-1.0205s-.4619-.5228-.8701-.6875c-.4011-.1647-.9561-.2471-1.6651-.2471zm22.4649-5.167v12.0098h-2.5137l-.4404-1.5361h-.1719c-.2578.4082-.5801.7412-.9668.999s-.8128.4476-1.2783.5693c-.4655.1218-.9489.1826-1.4502.1826-.8594 0-1.6078-.1503-2.2451-.4511-.6374-.308-1.1351-.7842-1.4932-1.4287-.3509-.6446-.5264-1.4825-.5264-2.5137v-7.8311h3.2764v7.0147c0 .8594.154 1.5075.4619 1.9443.308.4369.7985.6553 1.4717.6553.666 0 1.1888-.1504 1.5684-.4512.3795-.3079.6445-.7555.7949-1.3428.1575-.5944.2363-1.3177.2363-2.1699v-5.6504zm8.7471 9.6143c.358 0 .7054-.0358 1.0419-.1074.3438-.0716.684-.1612 1.0206-.2686v2.4385c-.351.1575-.7878.2865-1.3106.3867-.5156.1074-1.0814.1611-1.6973.1611-.7161 0-1.3606-.1145-1.9336-.3437-.5657-.2363-1.0133-.641-1.3427-1.2139-.3223-.5801-.4834-1.3857-.4834-2.417v-5.79h-1.5684v-1.3857l1.8047-1.0957.9453-2.5352h2.0947v2.5566h3.3623v2.46h-3.3623v5.79c0 .4584.1289.8021.3868 1.0313.2649.222.6123.333 1.042.333zm9.8105 0c.3581 0 .7054-.0358 1.042-.1074.3437-.0716.6839-.1612 1.0205-.2686v2.4385c-.3509.1575-.7878.2865-1.3105.3867-.5157.1074-1.0814.1611-1.6973.1611-.7162 0-1.3607-.1145-1.9336-.3437-.5658-.2363-1.0134-.641-1.3428-1.2139-.3222-.5801-.4834-1.3857-.4834-2.417v-5.79h-1.5683v-1.3857l1.8046-1.0957.9454-2.5352h2.0947v2.5566h3.3623v2.46h-3.3623v5.79c0 .4584.1289.8021.3867 1.0313.265.222.6123.333 1.042.333zm15.665-3.6309c0 1.0026-.136 1.8907-.4082 2.6641-.2649.7734-.6552 1.4287-1.1709 1.9658-.5084.53-1.1243.931-1.8476 1.2031-.7162.2722-1.5254.4082-2.4278.4082-.845 0-1.622-.136-2.331-.4082-.7018-.2721-1.3141-.6731-1.8369-1.2031-.5156-.5371-.9167-1.1924-1.2031-1.9658-.2793-.7734-.419-1.6615-.419-2.6641 0-1.332.2363-2.4599.709-3.3838.4726-.9238 1.1458-1.6256 2.0195-2.1054s1.9157-.7198 3.126-.7198c1.1243 0 2.1198.24 2.9863.7198.8737.4798 1.5576 1.1816 2.0518 2.1054.5013.9239.7519 2.0518.7519 3.3838zm-8.3037 0c0 .7878.086 1.4502.2578 1.9873.1719.5371.4405.9418.8057 1.2139s.8415.4082 1.4287.4082c.5801 0 1.0492-.1361 1.4072-.4082.3653-.2721.6302-.6768.795-1.2139.1718-.5371.2578-1.1995.2578-1.9873 0-.7949-.086-1.4537-.2578-1.9765-.1648-.53-.4297-.9274-.795-1.1924-.3652-.265-.8414-.3975-1.4287-.3975-.8665 0-1.4967.2972-1.8906.8916-.3867.5944-.5801 1.486-.5801 2.6748zm18.0821-6.209c1.2819 0 2.3131.351 3.0937 1.0528.7806.6946 1.1705 1.8118 1.1705 3.3515v7.8311h-3.276v-7.0146c0-.8594-.1575-1.5075-.4726-1.9444-.308-.4368-.7949-.6553-1.461-.6553-1.0026 0-1.6865.3402-2.0517 1.0205-.3652.6804-.5479 1.6615-.5479 2.9434v5.6504h-3.2763v-12.0098h2.5029l.4404 1.5362h.1826c.2579-.4154.5765-.752.9561-1.0098.3867-.2578.8128-.4476 1.2783-.5693.4727-.1218.9597-.1827 1.461-.1827z" fill="#fff"/><rect height="60" rx="6" stroke="#019aeb" stroke-width="4" width="122" x="2" y="2"/></svg>

<svg width="126" height="64" viewBox="0 0 126 64" fill="none" xmlns="http://www.w3.org/2000/svg">
<rect x="8" y="8" width="110" height="48" rx="4" fill="#DA212C"/>
<path d="M26.1309 25.2949H31.0186C33.1097 25.2949 34.6924 25.5885 35.7666 26.1758C36.8408 26.763 37.3779 27.7943 37.3779 29.2695C37.3779 29.8639 37.2812 30.401 37.0879 30.8809C36.9017 31.3607 36.6296 31.7546 36.2715 32.0625C35.9134 32.3704 35.4766 32.571 34.9609 32.6641V32.7715C35.4837 32.8789 35.9564 33.0651 36.3789 33.3301C36.8014 33.5879 37.138 33.9674 37.3887 34.4688C37.6465 34.9629 37.7754 35.6217 37.7754 36.4453C37.7754 37.3978 37.5426 38.2142 37.0771 38.8945C36.6117 39.5749 35.9456 40.0977 35.0791 40.4629C34.2197 40.821 33.1956 41 32.0068 41H26.1309V25.2949ZM29.4609 31.5146H31.3945C32.3613 31.5146 33.0309 31.3643 33.4033 31.0635C33.7757 30.7555 33.9619 30.3044 33.9619 29.71C33.9619 29.1084 33.7399 28.6787 33.2959 28.4209C32.859 28.1559 32.1644 28.0234 31.2119 28.0234H29.4609V31.5146ZM29.4609 34.1572V38.25H31.6309C32.6335 38.25 33.3317 38.0566 33.7256 37.6699C34.1195 37.2832 34.3164 36.764 34.3164 36.1123C34.3164 35.7256 34.2305 35.3854 34.0586 35.0918C33.8867 34.7982 33.5967 34.569 33.1885 34.4043C32.7874 34.2396 32.2324 34.1572 31.5234 34.1572H29.4609ZM51.9258 28.9902V41H49.4121L48.9717 39.4639H48.7998C48.542 39.8721 48.2197 40.2051 47.833 40.4629C47.4463 40.7207 47.0202 40.9105 46.5547 41.0322C46.0892 41.154 45.6058 41.2148 45.1045 41.2148C44.2451 41.2148 43.4967 41.0645 42.8594 40.7637C42.222 40.4557 41.7243 39.9795 41.3662 39.335C41.0153 38.6904 40.8398 37.8525 40.8398 36.8213V28.9902H44.1162V36.0049C44.1162 36.8643 44.2702 37.5124 44.5781 37.9492C44.8861 38.3861 45.3766 38.6045 46.0498 38.6045C46.7158 38.6045 47.2386 38.4541 47.6182 38.1533C47.9977 37.8454 48.2627 37.3978 48.4131 36.8105C48.5706 36.2161 48.6494 35.4928 48.6494 34.6406V28.9902H51.9258ZM60.6729 38.6045C61.0309 38.6045 61.3783 38.5687 61.7148 38.4971C62.0586 38.4255 62.3988 38.3359 62.7354 38.2285V40.667C62.3844 40.8245 61.9476 40.9535 61.4248 41.0537C60.9092 41.1611 60.3434 41.2148 59.7275 41.2148C59.0114 41.2148 58.3669 41.1003 57.7939 40.8711C57.2282 40.6348 56.7806 40.2301 56.4512 39.6572C56.1289 39.0771 55.9678 38.2715 55.9678 37.2402V31.4502H54.3994V30.0645L56.2041 28.9688L57.1494 26.4336H59.2441V28.9902H62.6064V31.4502H59.2441V37.2402C59.2441 37.6986 59.373 38.0423 59.6309 38.2715C59.8958 38.4935 60.2432 38.6045 60.6729 38.6045ZM70.4834 38.6045C70.8415 38.6045 71.1888 38.5687 71.5254 38.4971C71.8691 38.4255 72.2093 38.3359 72.5459 38.2285V40.667C72.195 40.8245 71.7581 40.9535 71.2354 41.0537C70.7197 41.1611 70.154 41.2148 69.5381 41.2148C68.8219 41.2148 68.1774 41.1003 67.6045 40.8711C67.0387 40.6348 66.5911 40.2301 66.2617 39.6572C65.9395 39.0771 65.7783 38.2715 65.7783 37.2402V31.4502H64.21V30.0645L66.0146 28.9688L66.96 26.4336H69.0547V28.9902H72.417V31.4502H69.0547V37.2402C69.0547 37.6986 69.1836 38.0423 69.4414 38.2715C69.7064 38.4935 70.0537 38.6045 70.4834 38.6045ZM86.1484 34.9736C86.1484 35.9762 86.0124 36.8643 85.7402 37.6377C85.4753 38.4111 85.085 39.0664 84.5693 39.6035C84.0609 40.1335 83.445 40.5345 82.7217 40.8066C82.0055 41.0788 81.1963 41.2148 80.2939 41.2148C79.4489 41.2148 78.6719 41.0788 77.9629 40.8066C77.2611 40.5345 76.6488 40.1335 76.126 39.6035C75.6104 39.0664 75.2093 38.4111 74.9229 37.6377C74.6436 36.8643 74.5039 35.9762 74.5039 34.9736C74.5039 33.6416 74.7402 32.5137 75.2129 31.5898C75.6855 30.666 76.3587 29.9642 77.2324 29.4844C78.1061 29.0046 79.1481 28.7646 80.3584 28.7646C81.4827 28.7646 82.4782 29.0046 83.3447 29.4844C84.2184 29.9642 84.9023 30.666 85.3965 31.5898C85.8978 32.5137 86.1484 33.6416 86.1484 34.9736ZM77.8447 34.9736C77.8447 35.7614 77.9307 36.4238 78.1025 36.9609C78.2744 37.498 78.543 37.9027 78.9082 38.1748C79.2734 38.4469 79.7497 38.583 80.3369 38.583C80.917 38.583 81.3861 38.4469 81.7441 38.1748C82.1094 37.9027 82.3743 37.498 82.5391 36.9609C82.7109 36.4238 82.7969 35.7614 82.7969 34.9736C82.7969 34.1787 82.7109 33.5199 82.5391 32.9971C82.3743 32.4671 82.1094 32.0697 81.7441 31.8047C81.3789 31.5397 80.9027 31.4072 80.3154 31.4072C79.4489 31.4072 78.8187 31.7044 78.4248 32.2988C78.0381 32.8932 77.8447 33.7848 77.8447 34.9736ZM95.9268 28.7646C97.2087 28.7646 98.2399 29.1156 99.0205 29.8174C99.8011 30.512 100.191 31.6292 100.191 33.1689V41H96.915V33.9854C96.915 33.126 96.7575 32.4779 96.4424 32.041C96.1344 31.6042 95.6475 31.3857 94.9814 31.3857C93.9788 31.3857 93.2949 31.7259 92.9297 32.4062C92.5645 33.0866 92.3818 34.0677 92.3818 35.3496V41H89.1055V28.9902H91.6084L92.0488 30.5264H92.2314C92.4893 30.111 92.8079 29.7744 93.1875 29.5166C93.5742 29.2588 94.0003 29.069 94.4658 28.9473C94.9385 28.8255 95.4255 28.7646 95.9268 28.7646Z" fill="#fff"/>
<rect x="2" y="2" width="122" height="60" rx="6" stroke="#019AEB" stroke-width="4"/>
</svg>
